;FLAVOR:Marlin
;TIME:1513
;Filament used: 1.01644m
;Layer height: 0.2
;MINX:139
;MINY:139
;MINZ:0.2
;MAXX:171
;MAXY:171
;MAXZ:20
;Generated with Cura_SteamEngine 4.10.0
M140 S60
M105
M190 S60
M104 S195
M105
M109 S195
M82 ;absolute extrusion mode
G28 ;Home
；G29 ;ABL-Bl touch
；M420 S1；Use mesh when calculating Z
G1 X-2 Y0 Z0 F3000
G1 Y150 F1500
G0 E8  F2000
G4 P2000 
G1 Z15.0 F2000 ;Move the platform down 15mm
;Prime the extruder
AA
G92 E0; Reset Extruder
G92 E0
G92 E0
G1 F1800 E-1
;LAYER_COUNT:100
;LAYER:0
M107
G0 F3000 X140.924 Y140.614 Z0.2
;TYPE:SKIRT
G1 F1800 E0
G1 F2700 X141.458 Y140.173 E0.02303
G1 X142.039 Y139.796 E0.04607
G1 X142.659 Y139.488 E0.0691
G1 X143.311 Y139.254 E0.09214
G1 X143.985 Y139.097 E0.11515
G1 X144.841 Y139.011 E0.14377
G1 X145.33 Y139 E0.16004
G1 X164.293 Y139 E0.79075
G1 X165.077 Y139.011 E0.81683
G1 X165.768 Y139.06 E0.83987
G1 X166.448 Y139.19 E0.86289
G1 X167.109 Y139.396 E0.88592
G1 X167.742 Y139.678 E0.90897
G1 X168.338 Y140.03 E0.93199
G1 X168.889 Y140.449 E0.95501
G1 X169.389 Y140.929 E0.97807
G1 X169.83 Y141.463 E1.0011
G1 X170.207 Y142.044 E1.02414
G1 X170.514 Y142.665 E1.04718
G1 X170.747 Y143.317 E1.07021
G1 X170.904 Y143.991 E1.09323
G1 X170.989 Y144.841 E1.12164
G1 X171 Y145.33 E1.13791
G1 X171 Y164.338 E1.77011
G1 X170.991 Y165.065 E1.7943
G1 X170.942 Y165.756 E1.81734
G1 X170.814 Y166.437 E1.84038
G1 X170.609 Y167.098 E1.8634
G1 X170.329 Y167.731 E1.88642
G1 X169.977 Y168.328 E1.90947
G1 X169.56 Y168.881 E1.93251
G1 X169.081 Y169.381 E1.95554
G1 X168.548 Y169.823 E1.97857
G1 X167.967 Y170.201 E2.00162
G1 X167.347 Y170.509 E2.02465
G1 X166.696 Y170.744 E2.04767
G1 X166.021 Y170.902 E2.07073
G1 X165.159 Y170.989 E2.09954
G1 X164.67 Y171 E2.11581
G1 X145.63 Y171 E2.74908
G1 X144.932 Y170.991 E2.7723
G1 X144.241 Y170.942 E2.79534
G1 X143.56 Y170.813 E2.81839
G1 X142.899 Y170.608 E2.84141
G1 X142.266 Y170.327 E2.86445
G1 X141.669 Y169.976 E2.88748
G1 X141.117 Y169.558 E2.91051
G1 X140.617 Y169.079 E2.93354
G1 X140.175 Y168.545 E2.9566
G1 X139.798 Y167.965 E2.9796
G1 X139.49 Y167.344 E3.00266
G1 X139.255 Y166.693 E3.02568
G1 X139.098 Y166.018 E3.04873
G1 X139.011 Y165.153 E3.07764
G1 X139 Y164.658 E3.09411
G1 X139.001 Y145.593 E3.72822
G1 X139.01 Y144.928 E3.75034
G1 X139.059 Y144.237 E3.77338
G1 X139.187 Y143.557 E3.79639
G1 X139.394 Y142.895 E3.81946
G1 X139.675 Y142.262 E3.8425
G1 X140.027 Y141.666 E3.86552
G1 X140.445 Y141.114 E3.88855
G1 X140.924 Y140.614 E3.91158
G0 F3000 X141.314 Y140.801
G1 F2700 X141.843 Y140.39 E3.93386
G1 X142.416 Y140.045 E3.9561
G1 X143.027 Y139.772 E3.97836
G1 X143.665 Y139.573 E4.00059
G1 X144.323 Y139.451 E4.02285
G1 X144.852 Y139.411 E4.04049
G1 X145.33 Y139.4 E4.0564
G1 X164.293 Y139.4 E4.68711
G1 X165.071 Y139.411 E4.71299
G1 X165.738 Y139.46 E4.73523
G1 X166.395 Y139.589 E4.7575
G1 X167.031 Y139.795 E4.77974
G1 X167.639 Y140.076 E4.80201
G1 X168.208 Y140.426 E4.82423
G1 X168.732 Y140.843 E4.84651
G1 X169.202 Y141.319 E4.86875
G1 X169.612 Y141.847 E4.89099
G1 X169.957 Y142.421 E4.91326
G1 X170.23 Y143.032 E4.93552
G1 X170.428 Y143.671 E4.95777
G1 X170.549 Y144.329 E4.98002
G1 X170.589 Y144.853 E4.9975
G1 X170.6 Y145.33 E5.01337
G1 X170.6 Y164.333 E5.64541
G1 X170.591 Y165.06 E5.6696
G1 X170.542 Y165.728 E5.69187
G1 X170.415 Y166.384 E5.7141
G1 X170.21 Y167.021 E5.73635
G1 X169.931 Y167.629 E5.7586
G1 X169.581 Y168.199 E5.78085
G1 X169.165 Y168.724 E5.80313
G1 X168.69 Y169.195 E5.82538
G1 X168.163 Y169.606 E5.84761
G1 X167.59 Y169.952 E5.86987
G1 X166.98 Y170.226 E5.89211
G1 X166.341 Y170.426 E5.91438
G1 X165.683 Y170.548 E5.93664
G1 X165.148 Y170.589 E5.95449
G1 X164.67 Y170.6 E5.97039
G1 X145.635 Y170.6 E6.6035
G1 X144.937 Y170.591 E6.62671
G1 X144.27 Y170.542 E6.64896
G1 X143.613 Y170.414 E6.67122
G1 X142.976 Y170.209 E6.69348
G1 X142.368 Y169.929 E6.71574
G1 X141.798 Y169.579 E6.73799
G1 X141.274 Y169.163 E6.76024
G1 X140.803 Y168.688 E6.78249
G1 X140.392 Y168.16 E6.80474
G1 X140.047 Y167.587 E6.82699
G1 X139.773 Y166.977 E6.84923
G1 X139.573 Y166.338 E6.8715
G1 X139.452 Y165.68 E6.89375
G1 X139.411 Y165.142 E6.9117
G1 X139.4 Y164.658 E6.9278
G1 X139.401 Y145.598 E7.56174
G1 X139.41 Y144.933 E7.58386
G1 X139.459 Y144.266 E7.6061
G1 X139.587 Y143.609 E7.62837
G1 X139.792 Y142.973 E7.65059
G1 X140.072 Y142.365 E7.67285
G1 X140.423 Y141.795 E7.69512
G1 X140.839 Y141.271 E7.71737
G1 X141.314 Y140.801 E7.7396
G0 F3000 X141.703 Y140.995
G1 F2700 X142.226 Y140.617 E7.76106
G1 X142.79 Y140.306 E7.78248
G1 X143.389 Y140.068 E7.80392
G1 X144.013 Y139.905 E7.82537
G1 X144.863 Y139.811 E7.85381
G1 X145.33 Y139.8 E7.86935
G1 X164.293 Y139.8 E8.50006
G1 X165.065 Y139.811 E8.52574
G1 X165.708 Y139.86 E8.54719
G1 X166.34 Y139.988 E8.56864
G1 X166.951 Y140.194 E8.59008
G1 X167.532 Y140.473 E8.61152
G1 X168.074 Y140.822 E8.63296
G1 X168.568 Y141.236 E8.6544
G1 X169.008 Y141.708 E8.67586
G1 X169.386 Y142.23 E8.6973
G1 X169.696 Y142.795 E8.71873
G1 X169.934 Y143.394 E8.74017
G1 X170.096 Y144.018 E8.76161
G1 X170.189 Y144.864 E8.78992
G1 X170.2 Y145.33 E8.80542
G1 X170.2 Y164.328 E9.4373
G1 X170.191 Y165.055 E9.46148
G1 X170.143 Y165.698 E9.48293
G1 X170.016 Y166.33 E9.50437
G1 X169.811 Y166.942 E9.52583
G1 X169.533 Y167.523 E9.54726
G1 X169.185 Y168.066 E9.56871
G1 X168.772 Y168.561 E9.59015
G1 X168.301 Y169.001 E9.61159
G1 X167.779 Y169.38 E9.63304
G1 X167.215 Y169.691 E9.65446
G1 X166.616 Y169.93 E9.67591
G1 X165.993 Y170.094 E9.69734
G1 X165.137 Y170.189 E9.72599
G1 X164.67 Y170.2 E9.74152
G1 X145.64 Y170.2 E10.37446
G1 X144.942 Y170.191 E10.39768
G1 X144.299 Y170.142 E10.41913
G1 X143.667 Y170.015 E10.44057
G1 X143.056 Y169.81 E10.462
G1 X142.475 Y169.532 E10.48343
G1 X141.932 Y169.183 E10.5049
G1 X141.437 Y168.77 E10.52634
G1 X140.997 Y168.299 E10.54778
G1 X140.618 Y167.777 E10.56923
G1 X140.307 Y167.213 E10.59065
G1 X140.069 Y166.614 E10.61209
G1 X139.906 Y165.99 E10.63354
G1 X139.811 Y165.131 E10.66229
G1 X139.8 Y164.658 E10.67802
G1 X139.8 Y145.604 E11.31176
G1 X139.809 Y144.939 E11.33388
G1 X139.858 Y144.296 E11.35533
G1 X139.986 Y143.664 E11.37678
G1 X140.191 Y143.053 E11.39821
G1 X140.47 Y142.472 E11.41965
G1 X140.819 Y141.929 E11.44112
G1 X141.232 Y141.435 E11.46253
G1 X141.703 Y140.995 E11.48397
G0 F3000 X141.625 Y141.605
G1 F2700 X142.091 Y141.198 E11.50455
G1 X142.606 Y140.854 E11.52515
G1 X143.161 Y140.579 E11.54575
G1 X143.747 Y140.378 E11.56635
G1 X144.354 Y140.254 E11.58696
G1 X144.874 Y140.211 E11.60431
G1 X145.33 Y140.2 E11.61949
G1 X164.362 Y140.2 E12.25249
G1 X165.06 Y140.21 E12.27571
G1 X165.677 Y140.259 E12.2963
G1 X166.283 Y140.387 E12.3169
G1 X166.868 Y140.592 E12.33751
G1 X167.421 Y140.871 E12.35811
G1 X167.934 Y141.218 E12.37871
G1 X168.398 Y141.628 E12.39931
G1 X168.805 Y142.095 E12.41991
G1 X169.148 Y142.61 E12.44049
G1 X169.423 Y143.166 E12.46112
G1 X169.623 Y143.752 E12.48172
G1 X169.747 Y144.359 E12.50232
G1 X169.789 Y144.875 E12.51954
G1 X169.8 Y145.33 E12.53468
G1 X169.8 Y164.323 E13.16639
G1 X169.791 Y165.05 E13.19057
G1 X169.743 Y165.668 E13.21119
G1 X169.616 Y166.274 E13.23178
G1 X169.413 Y166.859 E13.25238
G1 X169.135 Y167.413 E13.27299
G1 X168.789 Y167.926 E13.29357
G1 X168.379 Y168.391 E13.31419
G1 X167.913 Y168.799 E13.33479
G1 X167.399 Y169.143 E13.35536
G1 X166.844 Y169.419 E13.37598
G1 X166.258 Y169.621 E13.3966
G1 X165.652 Y169.745 E13.41717
G1 X165.126 Y169.789 E13.43473
G1 X164.67 Y169.8 E13.4499
G1 X145.645 Y169.8 E14.08267
G1 X144.947 Y169.791 E14.10589
G1 X144.33 Y169.743 E14.12647
G1 X143.723 Y169.616 E14.1471
G1 X143.139 Y169.412 E14.16767
G1 X142.585 Y169.134 E14.18829
G1 X142.072 Y168.787 E14.20889
G1 X141.607 Y168.378 E14.22949
G1 X141.2 Y167.911 E14.25009
G1 X140.855 Y167.397 E14.27068
G1 X140.58 Y166.842 E14.29128
G1 X140.379 Y166.256 E14.31188
G1 X140.254 Y165.649 E14.3325
G1 X140.211 Y165.121 E14.35012
G1 X140.2 Y164.658 E14.36552
G1 X140.2 Y145.609 E14.99909
G1 X140.209 Y144.944 E15.02121
G1 X140.258 Y144.327 E15.0418
G1 X140.385 Y143.72 E15.06242
G1 X140.59 Y143.136 E15.08301
G1 X140.868 Y142.582 E15.10363
G1 X141.215 Y142.069 E15.12423
G1 X141.625 Y141.605 E15.14482
G0 F3000 X142.016 Y141.784
G1 F2700 X142.477 Y141.411 E15.16454
G1 X142.984 Y141.103 E15.18427
G1 X143.527 Y140.866 E15.20398
G1 X144.098 Y140.704 E15.22372
G1 X144.886 Y140.611 E15.25011
G1 X145.33 Y140.6 E15.26488
G1 X164.356 Y140.6 E15.89769
G1 X165.054 Y140.61 E15.92091
G1 X165.645 Y140.659 E15.94063
G1 X166.224 Y140.786 E15.96035
G1 X166.781 Y140.99 E15.98008
G1 X167.305 Y141.268 E15.99981
G1 X167.787 Y141.613 E16.01952
G1 X168.219 Y142.02 E16.03926
G1 X168.591 Y142.481 E16.05897
G1 X168.899 Y142.988 E16.0787
G1 X169.135 Y143.532 E16.09842
G1 X169.296 Y144.102 E16.11812
G1 X169.389 Y144.886 E16.14438
G1 X169.4 Y145.33 E16.15915
G1 X169.4 Y164.318 E16.79069
G1 X169.391 Y165.045 E16.81487
G1 X169.343 Y165.637 E16.83463
G1 X169.217 Y166.216 E16.85434
G1 X169.014 Y166.773 E16.87406
G1 X168.738 Y167.298 E16.89378
G1 X168.394 Y167.781 E16.91351
G1 X167.988 Y168.213 E16.93322
G1 X167.527 Y168.586 E16.95295
G1 X167.021 Y168.895 E16.97267
G1 X166.478 Y169.132 E16.99237
G1 X165.907 Y169.295 E17.01212
G1 X165.114 Y169.389 E17.03868
G1 X164.67 Y169.4 E17.05345
G1 X145.65 Y169.4 E17.68606
G1 X144.952 Y169.391 E17.70928
G1 X144.361 Y169.343 E17.729
G1 X143.782 Y169.216 E17.74872
G1 X143.225 Y169.013 E17.76843
G1 X142.7 Y168.737 E17.78816
G1 X142.218 Y168.392 E17.80788
G1 X141.786 Y167.986 E17.82759
G1 X141.412 Y167.525 E17.84734
G1 X141.104 Y167.019 E17.86704
G1 X140.867 Y166.475 E17.88678
G1 X140.705 Y165.905 E17.90649
G1 X140.611 Y165.11 E17.93311
G1 X140.6 Y164.658 E17.94815
G1 X140.6 Y145.614 E18.58156
G1 X140.609 Y144.949 E18.60368
G1 X140.657 Y144.358 E18.6234
G1 X140.784 Y143.779 E18.64311
G1 X140.988 Y143.222 E18.66284
G1 X141.265 Y142.698 E18.68256
G1 X141.61 Y142.216 E18.70227
G1 X142.016 Y141.784 E18.72199
G0 F3000 X142.406 Y141.972
G1 F2700 X142.86 Y141.635 E18.74079
G1 X143.357 Y141.366 E18.75959
G1 X143.887 Y141.169 E18.7784
G1 X144.44 Y141.05 E18.79721
G1 X145.218 Y141.002 E18.82314
G1 X145.33 Y141 E18.82686
G1 X164.35 Y141 E19.45947
G1 X165.048 Y141.01 E19.48269
G1 X165.612 Y141.058 E19.50151
G1 X166.162 Y141.185 E19.52029
G1 X166.69 Y141.389 E19.53912
G1 X167.184 Y141.664 E19.55792
G1 X167.633 Y142.007 E19.57671
G1 X168.03 Y142.409 E19.5955
G1 X168.367 Y142.864 E19.61434
G1 X168.635 Y143.361 E19.63312
G1 X168.831 Y143.891 E19.65191
G1 X168.951 Y144.444 E19.67073
G1 X168.998 Y145.218 E19.69652
G1 X169 Y145.33 E19.70025
G1 X169 Y164.314 E20.33166
G1 X168.991 Y165.041 E20.35584
G1 X168.944 Y165.604 E20.37463
G1 X168.818 Y166.155 E20.39343
G1 X168.616 Y166.683 E20.41223
G1 X168.341 Y167.177 E20.43104
G1 X167.999 Y167.627 E20.44984
G1 X167.597 Y168.025 E20.46865
G1 X167.144 Y168.362 E20.48743
G1 X166.647 Y168.632 E20.50624
G1 X166.117 Y168.829 E20.52505
G1 X165.565 Y168.95 E20.54385
G1 X164.782 Y168.998 E20.56994
G1 X164.67 Y169 E20.57366
G1 X145.655 Y169 E21.2061
G1 X144.957 Y168.991 E21.22932
G1 X144.394 Y168.943 E21.24812
G1 X143.843 Y168.817 E21.26691
G1 X143.315 Y168.615 E21.28572
G1 X142.821 Y168.34 E21.30452
G1 X142.371 Y167.998 E21.32332
G1 X141.973 Y167.596 E21.34214
G1 X141.637 Y167.142 E21.36092
G1 X141.367 Y166.645 E21.37973
G1 X141.17 Y166.115 E21.39854
G1 X141.05 Y165.563 E21.41733
G1 X141.001 Y164.766 E21.44389
G1 X141 Y145.62 E22.08069
G1 X141.009 Y144.955 E22.10281
G1 X141.057 Y144.392 E22.1216
G1 X141.183 Y143.841 E22.1404
G1 X141.386 Y143.313 E22.15921
G1 X141.662 Y142.819 E22.17803
G1 X142.004 Y142.369 E22.19683
G1 X142.406 Y141.972 E22.21562
G0 F3000 X142.397 Y142.531
G1 F2700 X142.794 Y142.171 E22.23345
G1 X143.241 Y141.873 E22.25132
G1 X143.726 Y141.645 E22.26914
G1 X144.24 Y141.492 E22.28698
G1 X144.908 Y141.41 E22.30936
G1 X145.33 Y141.4 E22.3234
G1 X164.345 Y141.4 E22.95585
G1 X165.043 Y141.41 E22.97906
G1 X165.577 Y141.458 E22.9969
G1 X166.098 Y141.584 E23.01472
G1 X166.595 Y141.787 E23.03258
G1 X167.056 Y142.061 E23.05042
G1 X167.471 Y142.4 E23.06824
G1 X167.831 Y142.798 E23.08609
G1 X168.128 Y143.244 E23.10391
G1 X168.356 Y143.73 E23.12177
G1 X168.508 Y144.244 E23.13959
G1 X168.59 Y144.909 E23.16188
G1 X168.6 Y145.33 E23.17589
G1 X168.6 Y164.309 E23.80713
G1 X168.591 Y165.036 E23.83131
G1 X168.544 Y165.57 E23.84914
G1 X168.419 Y166.091 E23.86696
G1 X168.217 Y166.588 E23.8848
G1 X167.944 Y167.05 E23.90265
G1 X167.606 Y167.466 E23.92048
G1 X167.209 Y167.827 E23.93833
G1 X166.763 Y168.125 E23.95617
G1 X166.278 Y168.353 E23.97399
G1 X165.764 Y168.507 E23.99184
G1 X165.092 Y168.59 E24.01436
G1 X164.67 Y168.6 E24.0284
G1 X145.661 Y168.6 E24.66064
G1 X144.963 Y168.591 E24.68386
G1 X144.428 Y168.544 E24.70172
G1 X143.907 Y168.418 E24.71955
G1 X143.41 Y168.216 E24.73739
G1 X142.949 Y167.943 E24.75521
G1 X142.533 Y167.604 E24.77306
G1 X142.172 Y167.208 E24.79088
G1 X141.874 Y166.762 E24.80872
G1 X141.646 Y166.276 E24.82658
G1 X141.493 Y165.762 E24.84442
G1 X141.41 Y165.088 E24.867
G1 X141.4 Y164.658 E24.88131
G1 X141.4 Y145.625 E25.51435
G1 X141.409 Y144.96 E25.53647
G1 X141.457 Y144.426 E25.5543
G1 X141.583 Y143.905 E25.57213
G1 X141.785 Y143.408 E25.58997
G1 X142.058 Y142.947 E25.60779
G1 X142.397 Y142.531 E25.62564
G0 F3000 X142.789 Y142.704
G1 F2700 X143.18 Y142.383 E25.64247
G1 X143.617 Y142.128 E25.6593
G1 X144.088 Y141.944 E25.67611
G1 X144.582 Y141.838 E25.69292
G1 X145.24 Y141.801 E25.71484
G1 X164.339 Y141.8 E26.35007
G1 X165.037 Y141.81 E26.37329
G1 X165.54 Y141.857 E26.39009
G1 X166.03 Y141.983 E26.40692
G1 X166.494 Y142.185 E26.42375
G1 X166.92 Y142.457 E26.44056
G1 X167.298 Y142.792 E26.45736
G1 X167.618 Y143.183 E26.47417
G1 X167.873 Y143.62 E26.491
G1 X168.056 Y144.091 E26.5078
G1 X168.163 Y144.585 E26.52461
G1 X168.199 Y145.24 E26.54643
G1 X168.2 Y164.304 E27.1805
G1 X168.191 Y165.031 E27.20469
G1 X168.145 Y165.534 E27.22149
G1 X168.02 Y166.024 E27.23831
G1 X167.819 Y166.488 E27.25512
G1 X167.548 Y166.915 E27.27194
G1 X167.213 Y167.294 E27.28877
G1 X166.823 Y167.615 E27.30557
G1 X166.387 Y167.871 E27.32239
G1 X165.916 Y168.054 E27.33919
G1 X165.422 Y168.162 E27.35601
G1 X164.76 Y168.199 E27.37806
G1 X145.666 Y168.2 E28.01313
G1 X144.968 Y168.191 E28.03635
G1 X144.464 Y168.144 E28.05319
G1 X143.974 Y168.019 E28.07
G1 X143.51 Y167.818 E28.08682
G1 X143.084 Y167.547 E28.10362
G1 X142.705 Y167.212 E28.12044
G1 X142.384 Y166.821 E28.13727
G1 X142.129 Y166.385 E28.15407
G1 X141.945 Y165.914 E28.17088
G1 X141.838 Y165.42 E28.1877
G1 X141.801 Y164.744 E28.21021
G1 X141.8 Y145.631 E28.84591
G1 X141.809 Y144.966 E28.86803
G1 X141.856 Y144.462 E28.88487
G1 X141.982 Y143.973 E28.90167
G1 X142.183 Y143.509 E28.91848
G1 X142.454 Y143.082 E28.9353
G1 X142.789 Y142.704 E28.9521
G1 F1800 E27.9521
;MESH:TEVOUP_test.STL
G0 F3000 X145.2 Y164.8
;TYPE:WALL-OUTER
G1 F1800 E28.9521
G1 F2400 X145.2 Y145.2 E29.604
G1 X164.8 Y145.2 E30.2559
G1 X164.8 Y164.8 E30.9078
G1 X145.2 Y164.8 E31.5597
G0 F3000 X145.6 Y164.4
;TYPE:WALL-INNER
G1 F2400 X145.6 Y145.6 E32.18499
G1 X164.4 Y145.6 E32.81028
G1 X164.4 Y164.4 E33.43557
G1 X145.6 Y164.4 E34.06086
G0 F3000 X145.99 Y164.01
;TYPE:SKIN
G1 F2400 X145.99 Y145.99 E34.66021
G1 X164.01 Y145.99 E35.25956
G1 X164.01 Y164.01 E35.8589
G1 X145.99 Y164.01 E36.45825
G0 F3000 X146.293 Y163.829
G1 F2400 X146.169 Y163.705 E36.46408
G0 F3000 X146.169 Y163.14
G1 F2400 X146.859 Y163.829 E36.49652
G0 F3000 X147.424 Y163.829
G1 F2400 X146.169 Y162.574 E36.55555
G0 F3000 X146.169 Y162.008
G1 F2400 X147.99 Y163.829 E36.6412
G0 F3000 X148.556 Y163.829
G1 F2400 X146.169 Y161.443 E36.75345
G0 F3000 X146.169 Y160.877
G1 F2400 X149.121 Y163.829 E36.89231
