;FLAVOR:Marlin
;TIME:1600
;Filament used: 1.07769m
;Layer height: 0.2
;MINX:139
;MINY:117.5
;MINZ:0.2
;MAXX:171
;MAXY:149.5
;MAXZ:20
;Generated with Cura_SteamEngine 4.10.0
M140 S60
M105
M190 S60
M104 S195
M105
M109 S195
M82 ;absolute extrusion mode
G28 ;Home
；G29 ;ABL-Bl touch
；M420 S1；Use mesh when calculating Z
G1 X-2 Y0 Z0 F3000
G1 Y150 F1500
G0 E8  F2000
G4 P2000 
G1 Z15.0 F2000 ;Move the platform down 15mm
;Prime the extruder
AA
G92 E0; Reset Extruder
G92 E0
G92 E0
G1 F1800 E-1
;LAYER_COUNT:100
;LAYER:0
M107
G0 F3000 X140.445 Y119.614 Z0.2
;TYPE:SKIRT
G1 F1800 E0
G1 F2700 X140.924 Y119.114 E0.02303
G1 X141.458 Y118.673 E0.04606
G1 X142.039 Y118.296 E0.0691
G1 X142.659 Y117.988 E0.09213
G1 X143.311 Y117.754 E0.11517
G1 X143.985 Y117.597 E0.13818
G1 X144.841 Y117.511 E0.1668
G1 X145.33 Y117.5 E0.18307
G1 X164.293 Y117.5 E0.81378
G1 X165.077 Y117.511 E0.83986
G1 X165.768 Y117.56 E0.8629
G1 X166.448 Y117.69 E0.88592
G1 X167.109 Y117.896 E0.90895
G1 X167.742 Y118.178 E0.932
G1 X168.338 Y118.53 E0.95502
G1 X168.889 Y118.949 E0.97804
G1 X169.389 Y119.429 E1.0011
G1 X169.83 Y119.963 E1.02413
G1 X170.207 Y120.544 E1.04717
G1 X170.514 Y121.165 E1.07021
G1 X170.747 Y121.817 E1.09324
G1 X170.904 Y122.491 E1.11625
G1 X170.989 Y123.341 E1.14467
G1 X171 Y123.83 E1.16094
G1 X171 Y142.838 E1.79314
G1 X170.991 Y143.565 E1.81733
G1 X170.942 Y144.256 E1.84037
G1 X170.814 Y144.937 E1.86341
G1 X170.609 Y145.598 E1.88643
G1 X170.329 Y146.231 E1.90945
G1 X169.977 Y146.828 E1.9325
G1 X169.56 Y147.381 E1.95554
G1 X169.081 Y147.881 E1.97857
G1 X168.548 Y148.323 E2.0016
G1 X167.967 Y148.701 E2.02465
G1 X167.347 Y149.009 E2.04768
G1 X166.696 Y149.244 E2.0707
G1 X166.021 Y149.402 E2.09376
G1 X165.159 Y149.489 E2.12257
G1 X164.67 Y149.5 E2.13884
G1 X145.63 Y149.5 E2.77211
G1 X144.932 Y149.491 E2.79533
G1 X144.241 Y149.442 E2.81837
G1 X143.56 Y149.313 E2.84142
G1 X142.899 Y149.108 E2.86444
G1 X142.266 Y148.827 E2.88748
G1 X141.669 Y148.476 E2.91051
G1 X141.117 Y148.058 E2.93354
G1 X140.617 Y147.579 E2.95657
G1 X140.175 Y147.045 E2.97963
G1 X139.798 Y146.465 E3.00263
G1 X139.49 Y145.844 E3.02569
G1 X139.255 Y145.193 E3.04871
G1 X139.098 Y144.518 E3.07176
G1 X139.011 Y143.653 E3.10067
G1 X139 Y143.158 E3.11714
G1 X139.001 Y124.093 E3.75125
G1 X139.01 Y123.428 E3.77337
G1 X139.059 Y122.737 E3.79641
G1 X139.187 Y122.057 E3.81942
G1 X139.394 Y121.395 E3.84249
G1 X139.675 Y120.762 E3.86553
G1 X140.027 Y120.166 E3.88855
G1 X140.445 Y119.614 E3.91158
G0 F3000 X140.839 Y119.771
G1 F2700 X141.314 Y119.301 E3.9338
G1 X141.843 Y118.89 E3.95608
G1 X142.416 Y118.545 E3.97833
G1 X143.027 Y118.272 E4.00059
G1 X143.665 Y118.073 E4.02282
G1 X144.323 Y117.951 E4.04507
G1 X144.852 Y117.911 E4.06272
G1 X145.33 Y117.9 E4.07862
G1 X164.293 Y117.9 E4.70933
G1 X165.071 Y117.911 E4.73521
G1 X165.738 Y117.96 E4.75746
G1 X166.395 Y118.089 E4.77973
G1 X167.031 Y118.295 E4.80196
G1 X167.639 Y118.576 E4.82424
G1 X168.208 Y118.926 E4.84646
G1 X168.732 Y119.343 E4.86873
G1 X169.202 Y119.819 E4.89098
G1 X169.612 Y120.347 E4.91321
G1 X169.957 Y120.921 E4.93549
G1 X170.23 Y121.532 E4.95775
G1 X170.428 Y122.171 E4.98
G1 X170.549 Y122.829 E5.00225
G1 X170.589 Y123.353 E5.01973
G1 X170.6 Y123.83 E5.0356
G1 X170.6 Y142.833 E5.66764
G1 X170.591 Y143.56 E5.69182
G1 X170.542 Y144.228 E5.7141
G1 X170.415 Y144.884 E5.73632
G1 X170.21 Y145.521 E5.75858
G1 X169.931 Y146.129 E5.78083
G1 X169.581 Y146.699 E5.80308
G1 X169.165 Y147.224 E5.82536
G1 X168.69 Y147.695 E5.8476
G1 X168.163 Y148.106 E5.86983
G1 X167.59 Y148.452 E5.8921
G1 X166.98 Y148.726 E5.91434
G1 X166.341 Y148.926 E5.93661
G1 X165.683 Y149.048 E5.95887
G1 X165.148 Y149.089 E5.97671
G1 X164.67 Y149.1 E5.99261
G1 X145.635 Y149.1 E6.62572
G1 X144.937 Y149.091 E6.64894
G1 X144.27 Y149.042 E6.67118
G1 X143.613 Y148.914 E6.69345
G1 X142.976 Y148.709 E6.7157
G1 X142.368 Y148.429 E6.73797
G1 X141.798 Y148.079 E6.76021
G1 X141.274 Y147.663 E6.78247
G1 X140.803 Y147.188 E6.80471
G1 X140.392 Y146.66 E6.82697
G1 X140.047 Y146.087 E6.84921
G1 X139.773 Y145.477 E6.87146
G1 X139.573 Y144.838 E6.89373
G1 X139.452 Y144.18 E6.91598
G1 X139.411 Y143.642 E6.93392
G1 X139.4 Y143.158 E6.95003
G1 X139.401 Y124.098 E7.58396
G1 X139.41 Y123.433 E7.60608
G1 X139.459 Y122.766 E7.62833
G1 X139.587 Y122.109 E7.65059
G1 X139.792 Y121.473 E7.67282
G1 X140.072 Y120.865 E7.69508
G1 X140.423 Y120.295 E7.71734
G1 X140.839 Y119.771 E7.7396
G0 F3000 X141.232 Y119.935
G1 F2700 X141.703 Y119.495 E7.76103
G1 X142.226 Y119.117 E7.7825
G1 X142.79 Y118.806 E7.80392
G1 X143.389 Y118.568 E7.82536
G1 X144.013 Y118.405 E7.84681
G1 X144.863 Y118.311 E7.87525
G1 X145.33 Y118.3 E7.89079
G1 X164.293 Y118.3 E8.5215
G1 X165.065 Y118.311 E8.54718
G1 X165.708 Y118.36 E8.56863
G1 X166.34 Y118.488 E8.59007
G1 X166.951 Y118.694 E8.61152
G1 X167.532 Y118.973 E8.63296
G1 X168.074 Y119.322 E8.6544
G1 X168.568 Y119.736 E8.67584
G1 X169.008 Y120.208 E8.6973
G1 X169.386 Y120.73 E8.71873
G1 X169.696 Y121.295 E8.74017
G1 X169.934 Y121.894 E8.76161
G1 X170.096 Y122.518 E8.78305
G1 X170.189 Y123.364 E8.81136
G1 X170.2 Y123.83 E8.82686
G1 X170.2 Y142.828 E9.45874
G1 X170.191 Y143.555 E9.48292
G1 X170.143 Y144.198 E9.50436
G1 X170.016 Y144.83 E9.5258
G1 X169.811 Y145.442 E9.54727
G1 X169.533 Y146.023 E9.56869
G1 X169.185 Y146.566 E9.59014
G1 X168.772 Y147.061 E9.61159
G1 X168.301 Y147.501 E9.63302
G1 X167.779 Y147.88 E9.65448
G1 X167.215 Y148.191 E9.6759
G1 X166.616 Y148.43 E9.69735
G1 X165.993 Y148.594 E9.71878
G1 X165.137 Y148.689 E9.74742
G1 X164.67 Y148.7 E9.76296
G1 X145.64 Y148.7 E10.3959
G1 X144.942 Y148.691 E10.41912
G1 X144.299 Y148.642 E10.44057
G1 X143.667 Y148.515 E10.46201
G1 X143.056 Y148.31 E10.48344
G1 X142.475 Y148.032 E10.50486
G1 X141.932 Y147.683 E10.52633
G1 X141.437 Y147.27 E10.54778
G1 X140.997 Y146.799 E10.56921
G1 X140.618 Y146.277 E10.59067
G1 X140.307 Y145.713 E10.61209
G1 X140.069 Y145.114 E10.63353
G1 X139.906 Y144.49 E10.65498
G1 X139.811 Y143.631 E10.68372
G1 X139.8 Y143.158 E10.69946
G1 X139.8 Y124.104 E11.3332
G1 X139.809 Y123.439 E11.35532
G1 X139.858 Y122.796 E11.37677
G1 X139.986 Y122.164 E11.39821
G1 X140.191 Y121.553 E11.41965
G1 X140.47 Y120.972 E11.44109
G1 X140.819 Y120.429 E11.46255
G1 X141.232 Y119.935 E11.48397
G0 F3000 X141.215 Y120.569
G1 F2700 X141.625 Y120.105 E11.50456
G1 X142.091 Y119.698 E11.52514
G1 X142.606 Y119.354 E11.54574
G1 X143.161 Y119.079 E11.56634
G1 X143.747 Y118.878 E11.58695
G1 X144.354 Y118.754 E11.60755
G1 X144.874 Y118.711 E11.62491
G1 X145.33 Y118.7 E11.64008
G1 X164.362 Y118.7 E12.27309
G1 X165.06 Y118.71 E12.2963
G1 X165.677 Y118.759 E12.31689
G1 X166.283 Y118.887 E12.33749
G1 X166.868 Y119.092 E12.35811
G1 X167.421 Y119.371 E12.37871
G1 X167.934 Y119.718 E12.39931
G1 X168.398 Y120.128 E12.4199
G1 X168.805 Y120.595 E12.44051
G1 X169.148 Y121.11 E12.46109
G1 X169.423 Y121.666 E12.48172
G1 X169.623 Y122.252 E12.50231
G1 X169.747 Y122.859 E12.52292
G1 X169.789 Y123.375 E12.54014
G1 X169.8 Y123.83 E12.55527
G1 X169.8 Y142.823 E13.18698
G1 X169.791 Y143.55 E13.21117
G1 X169.743 Y144.168 E13.23178
G1 X169.616 Y144.774 E13.25238
G1 X169.413 Y145.359 E13.27297
G1 X169.135 Y145.913 E13.29359
G1 X168.789 Y146.426 E13.31417
G1 X168.379 Y146.891 E13.33479
G1 X167.913 Y147.299 E13.35539
G1 X167.399 Y147.643 E13.37596
G1 X166.844 Y147.919 E13.39657
G1 X166.258 Y148.121 E13.41719
G1 X165.652 Y148.245 E13.43776
G1 X165.126 Y148.289 E13.45532
G1 X164.67 Y148.3 E13.47049
G1 X145.645 Y148.3 E14.10327
G1 X144.947 Y148.291 E14.12648
G1 X144.33 Y148.243 E14.14707
G1 X143.723 Y148.116 E14.16769
G1 X143.139 Y147.912 E14.18827
G1 X142.585 Y147.634 E14.20888
G1 X142.072 Y147.287 E14.22948
G1 X141.607 Y146.878 E14.25008
G1 X141.2 Y146.411 E14.27068
G1 X140.855 Y145.897 E14.29127
G1 X140.58 Y145.342 E14.31187
G1 X140.379 Y144.756 E14.33248
G1 X140.254 Y144.149 E14.35309
G1 X140.211 Y143.621 E14.37071
G1 X140.2 Y143.158 E14.38611
G1 X140.2 Y124.109 E15.01969
G1 X140.209 Y123.444 E15.04181
G1 X140.258 Y122.827 E15.06239
G1 X140.385 Y122.22 E15.08302
G1 X140.59 Y121.636 E15.10361
G1 X140.868 Y121.082 E15.12422
G1 X141.215 Y120.569 E15.14482
G0 F3000 X141.61 Y120.716
G1 F2700 X142.016 Y120.284 E15.16454
G1 X142.477 Y119.911 E15.18426
G1 X142.984 Y119.603 E15.20399
G1 X143.527 Y119.366 E15.2237
G1 X144.098 Y119.204 E15.24344
G1 X144.886 Y119.111 E15.26983
G1 X145.33 Y119.1 E15.2846
G1 X164.356 Y119.1 E15.91741
G1 X165.054 Y119.11 E15.94063
G1 X165.645 Y119.159 E15.96035
G1 X166.224 Y119.286 E15.98007
G1 X166.781 Y119.49 E15.9998
G1 X167.305 Y119.768 E16.01953
G1 X167.787 Y120.113 E16.03924
G1 X168.219 Y120.52 E16.05898
G1 X168.591 Y120.981 E16.07868
G1 X168.899 Y121.488 E16.09841
G1 X169.135 Y122.032 E16.11814
G1 X169.296 Y122.602 E16.13784
G1 X169.389 Y123.386 E16.1641
G1 X169.4 Y123.83 E16.17887
G1 X169.4 Y142.818 E16.81041
G1 X169.391 Y143.545 E16.83459
G1 X169.343 Y144.137 E16.85435
G1 X169.217 Y144.716 E16.87406
G1 X169.014 Y145.273 E16.89377
G1 X168.738 Y145.798 E16.9135
G1 X168.394 Y146.281 E16.93322
G1 X167.988 Y146.713 E16.95294
G1 X167.527 Y147.086 E16.97267
G1 X167.021 Y147.395 E16.99238
G1 X166.478 Y147.632 E17.01209
G1 X165.907 Y147.795 E17.03184
G1 X165.114 Y147.889 E17.0584
G1 X164.67 Y147.9 E17.07317
G1 X145.65 Y147.9 E17.70578
G1 X144.952 Y147.891 E17.729
G1 X144.361 Y147.843 E17.74872
G1 X143.782 Y147.716 E17.76843
G1 X143.225 Y147.513 E17.78815
G1 X142.7 Y147.237 E17.80788
G1 X142.218 Y146.892 E17.82759
G1 X141.786 Y146.486 E17.84731
G1 X141.412 Y146.025 E17.86706
G1 X141.104 Y145.519 E17.88676
G1 X140.867 Y144.975 E17.9065
G1 X140.705 Y144.405 E17.9262
G1 X140.611 Y143.61 E17.95283
G1 X140.6 Y143.158 E17.96787
G1 X140.6 Y124.114 E18.60127
G1 X140.609 Y123.449 E18.62339
G1 X140.657 Y122.858 E18.64312
G1 X140.784 Y122.279 E18.66283
G1 X140.988 Y121.722 E18.68256
G1 X141.265 Y121.198 E18.70227
G1 X141.61 Y120.716 E18.72199
G0 F3000 X142.004 Y120.869
G1 F2700 X142.406 Y120.472 E18.74078
G1 X142.86 Y120.135 E18.75959
G1 X143.357 Y119.866 E18.77838
G1 X143.887 Y119.669 E18.79719
G1 X144.44 Y119.55 E18.816
G1 X145.218 Y119.502 E18.84193
G1 X145.33 Y119.5 E18.84565
G1 X164.35 Y119.5 E19.47826
G1 X165.048 Y119.51 E19.50148
G1 X165.612 Y119.558 E19.52031
G1 X166.162 Y119.685 E19.53908
G1 X166.69 Y119.889 E19.55791
G1 X167.184 Y120.164 E19.57671
G1 X167.633 Y120.507 E19.5955
G1 X168.03 Y120.909 E19.6143
G1 X168.367 Y121.364 E19.63313
G1 X168.635 Y121.861 E19.65191
G1 X168.831 Y122.391 E19.6707
G1 X168.951 Y122.944 E19.68952
G1 X168.998 Y123.718 E19.71532
G1 X169 Y123.83 E19.71904
G1 X169 Y142.814 E20.35045
G1 X168.991 Y143.541 E20.37463
G1 X168.944 Y144.104 E20.39342
G1 X168.818 Y144.655 E20.41222
G1 X168.616 Y145.183 E20.43103
G1 X168.341 Y145.677 E20.44983
G1 X167.999 Y146.127 E20.46863
G1 X167.597 Y146.525 E20.48744
G1 X167.144 Y146.862 E20.50622
G1 X166.647 Y147.132 E20.52504
G1 X166.117 Y147.329 E20.54384
G1 X165.565 Y147.45 E20.56264
G1 X164.782 Y147.498 E20.58873
G1 X164.67 Y147.5 E20.59245
G1 X145.655 Y147.5 E21.2249
G1 X144.957 Y147.491 E21.24811
G1 X144.394 Y147.443 E21.26691
G1 X143.843 Y147.317 E21.28571
G1 X143.315 Y147.115 E21.30451
G1 X142.821 Y146.84 E21.32331
G1 X142.371 Y146.498 E21.34211
G1 X141.973 Y146.096 E21.36093
G1 X141.637 Y145.642 E21.37971
G1 X141.367 Y145.145 E21.39853
G1 X141.17 Y144.615 E21.41733
G1 X141.05 Y144.063 E21.43612
G1 X141.001 Y143.266 E21.46268
G1 X141 Y124.12 E22.09948
G1 X141.009 Y123.455 E22.1216
G1 X141.057 Y122.892 E22.14039
G1 X141.183 Y122.341 E22.15919
G1 X141.386 Y121.813 E22.178
G1 X141.662 Y121.319 E22.19683
G1 X142.004 Y120.869 E22.21562
G0 F3000 X142.397 Y121.031
G1 F2700 X142.794 Y120.671 E22.23345
G1 X143.241 Y120.373 E22.25132
G1 X143.726 Y120.145 E22.26914
G1 X144.24 Y119.992 E22.28698
G1 X144.908 Y119.91 E22.30936
G1 X145.33 Y119.9 E22.3234
G1 X164.345 Y119.9 E22.95585
G1 X165.043 Y119.91 E22.97906
G1 X165.577 Y119.958 E22.9969
G1 X166.098 Y120.084 E23.01472
G1 X166.595 Y120.287 E23.03258
G1 X167.056 Y120.561 E23.05042
G1 X167.471 Y120.9 E23.06824
G1 X167.831 Y121.298 E23.08609
G1 X168.128 Y121.744 E23.10391
G1 X168.356 Y122.23 E23.12177
G1 X168.508 Y122.744 E23.13959
G1 X168.59 Y123.409 E23.16188
G1 X168.6 Y123.83 E23.17589
G1 X168.6 Y142.809 E23.80713
G1 X168.591 Y143.536 E23.83131
G1 X168.544 Y144.07 E23.84914
G1 X168.419 Y144.591 E23.86696
G1 X168.217 Y145.088 E23.8848
G1 X167.944 Y145.55 E23.90265
G1 X167.606 Y145.966 E23.92048
G1 X167.209 Y146.327 E23.93833
G1 X166.763 Y146.625 E23.95617
G1 X166.278 Y146.853 E23.97399
G1 X165.764 Y147.007 E23.99184
G1 X165.092 Y147.09 E24.01436
G1 X164.67 Y147.1 E24.0284
G1 X145.661 Y147.1 E24.66064
G1 X144.963 Y147.091 E24.68386
G1 X144.428 Y147.044 E24.70172
G1 X143.907 Y146.918 E24.71955
G1 X143.41 Y146.716 E24.73739
G1 X142.949 Y146.443 E24.75521
G1 X142.533 Y146.104 E24.77306
G1 X142.172 Y145.708 E24.79088
G1 X141.874 Y145.262 E24.80872
G1 X141.646 Y144.776 E24.82658
G1 X141.493 Y144.262 E24.84442
G1 X141.41 Y143.588 E24.867
G1 X141.4 Y143.158 E24.88131
G1 X141.4 Y124.125 E25.51435
G1 X141.409 Y123.46 E25.53647
G1 X141.457 Y122.926 E25.5543
G1 X141.583 Y122.405 E25.57213
G1 X141.785 Y121.908 E25.58997
G1 X142.058 Y121.447 E25.60779
G1 X142.397 Y121.031 E25.62564
G0 F3000 X142.454 Y121.582
G1 F2700 X142.789 Y121.204 E25.64244
G1 X143.18 Y120.883 E25.65927
G1 X143.617 Y120.628 E25.6761
G1 X144.088 Y120.444 E25.69291
G1 X144.582 Y120.338 E25.70972
G1 X145.24 Y120.301 E25.73164
G1 X164.339 Y120.3 E26.36687
G1 X165.037 Y120.31 E26.39009
G1 X165.54 Y120.357 E26.40689
G1 X166.03 Y120.483 E26.42372
G1 X166.494 Y120.685 E26.44055
G1 X166.92 Y120.957 E26.45736
G1 X167.298 Y121.292 E26.47416
G1 X167.618 Y121.683 E26.49097
G1 X167.873 Y122.12 E26.5078
G1 X168.056 Y122.591 E26.5246
G1 X168.163 Y123.085 E26.54141
G1 X168.199 Y123.74 E26.56323
G1 X168.2 Y142.804 E27.1973
G1 X168.191 Y143.531 E27.22149
G1 X168.145 Y144.034 E27.23829
G1 X168.02 Y144.524 E27.2551
G1 X167.819 Y144.988 E27.27192
G1 X167.548 Y145.415 E27.28874
G1 X167.213 Y145.794 E27.30557
G1 X166.823 Y146.115 E27.32237
G1 X166.387 Y146.371 E27.33918
G1 X165.916 Y146.554 E27.35599
G1 X165.422 Y146.662 E27.37281
G1 X164.76 Y146.699 E27.39486
G1 X145.666 Y146.7 E28.02993
G1 X144.968 Y146.691 E28.05315
G1 X144.464 Y146.644 E28.06998
G1 X143.974 Y146.519 E28.0868
G1 X143.51 Y146.318 E28.10362
G1 X143.084 Y146.047 E28.12041
G1 X142.705 Y145.712 E28.13724
G1 X142.384 Y145.321 E28.15406
G1 X142.129 Y144.885 E28.17086
G1 X141.945 Y144.414 E28.18768
G1 X141.838 Y143.92 E28.20449
G1 X141.801 Y143.244 E28.22701
G1 X141.8 Y124.131 E28.86271
G1 X141.809 Y123.466 E28.88483
G1 X141.856 Y122.962 E28.90167
G1 X141.982 Y122.473 E28.91846
G1 X142.183 Y122.009 E28.93528
G1 X142.454 Y121.582 E28.9521
G1 F1800 E27.9521
;MESH:xyzCalibration_cube.stl
G0 F3000 X145.2 Y143.3
;TYPE:WALL-OUTER
G1 F1800 E28.9521
G1 F2400 X145.2 Y123.7 E29.604
G1 X164.8 Y123.7 E30.2559
G1 X164.8 Y143.3 E30.9078
G1 X145.2 Y143.3 E31.5597
G0 F3000 X145.6 Y142.9
;TYPE:WALL-INNER
G1 F2400 X145.6 Y124.1 E32.18499
G1 X164.4 Y124.1 E32.81028
G1 X164.4 Y142.9 E33.43557
G1 X145.6 Y142.9 E34.06086
G0 F3000 X145.99 Y142.51
;TYPE:SKIN
G1 F2400 X145.99 Y124.49 E34.66021
G1 X164.01 Y124.49 E35.25956
G1 X164.01 Y142.51 E35.8589
G1 X145.99 Y142.51 E36.45825
G0 F3000 X146.289 Y142.329
G1 F2400 X146.168 Y142.209 E36.46392
G0 F3000 X146.168 Y141.643
G1 F2400 X146.855 Y142.329 E36.49621
G0 F3000 X147.421 Y142.329
G1 F2400 X146.168 Y141.077 E36.55512
G0 F3000 X146.168 Y140.512
G1 F2400 X147.986 Y142.329 E36.64061
G0 F3000 X148.552 Y142.329
G1 F2400 X146.168 Y139.946 E36.75273
G0 F3000 X146.168 Y139.38
